X:1
T:Our Watchword
T:Our Watchword
T:Charles Hutchinson Gabriel, 1897
T:Silas Farmer, 1869
T:Public Domain Courtesy of the Cyber Hymnal™
T:Public Domain Courtesy of the Cyber Hymnal™
C:Charles Hutchinson Gabriel, 1897
Z:Public Domain
Z:Courtesy of the Cyber Hymnal™
%%score ( 1 2 ) ( 3 4 )
L:1/8
Q:1/4=108
M:4/4
K:C
V:1 treble 
V:2 treble 
V:3 bass 
V:4 bass 
V:1
 [EG]2 | [EG]2 [Ge]2 [Ge]3 [Fd] | [Fd]2 [Ec]4 [Gc]2 | [Ac]3 [GB] [FA]2 [Fc]2 | [EG]6 G2 | %5
w: 1.~We’re|draw- ing near to|Je- sus, Our|ban- ner waves on|high; And|
w: 2.~We|love our Mas- ter’s|ser- vice, And,|see- ing eye to|eye, With|
w: 3.~The|fields are white to|har- vest, The|days are speed- ing|by; Go|
 [FG]3 [Fd] [Fd]2 [Ge]2 | [Fd]2 [Ec]4 [Ge]2 | [Gd]3 G [^FB]2 [FA]2 | G6 ||"^Refrain" G2 | %10
w: this our watch- word|ev- er, “We’ll|work un- til we|die.”||
w: grace di- vine to|help us, We’ll|work un- til we|die.|We’ll|
w: forth a- gain, ye|work- ers, And|work un- til ye|die.||
 e4- e>d (3:2:1[FA] x4/3 | G8 [Ec]2 | [GB]>[Bd] [FA]>[Ac] [EG]>[GB] [DF]>[FA] | %13
w: |||
w: work * un- til|we die;|The ban- ner of our cap- tain Through|
w: |||
 [EG]>[^D^F] [EG]>[=FA] [EG]2 [EG]2 | e4- e>e (3(ed)[Gc] | c4 [FA]2 [FA]2 | %16
w: |||
w: the con- flict we will bear;|We’ll * work un- * til|we die, And|
w: |||
 [EG]>[EG] [EG]>[EG] [FA]2 [FB]2 | [Ec]6 |] %18
w: ||
w: * then go home our crowns|to|
w: ||
V:2
 x2 | x8 | x8 | x8 | x6 G2 | x8 | x8 | x3 G x4 | G6 || G2 | (G>GG>G G2) (3:2:2(cB) x2/3 | %11
 (E>EE>E E2) x4 | x8 | x8 | (G>GG>G G2) G2 | A>AA>A x4 | x8 | x6 |] %18
V:3
 [C,C]2 | [C,C]2 [C,C]2 [C,C]3 [C,C] | [C,G,]2 [C,G,]4 [E,C]2 | [F,C]3 [F,C] [F,C]2 [A,C]2 | %4
w: ~|~ ~ ~ ~|~ ~ ~|~ ~ ~ ~|
 C6 [E,C]2 | [G,B,]3 [G,B,] [G,B,]2 [G,B,]2 | [C,C]2 [C,C]4 [C,C]2 | [D,B,]3 [D,B,] [D,D]2 [D,C]2 | %8
w: ~ ~|~ ~ ~ ~|~ ~ ~|~ ~ ~ ~|
 [G,B,]6 || [G,B,]2 | [C,C]>[C,C] [C,C]>[C,C] [C,C]2 (3:2:2[C,A,]2 [C,C] | %11
w: ~|~|work un- til we die, Yes, we’ll|
 [C,C]>[C,C] [C,C]>[C,C] [C,C]2 [C,G,]2 x2 | G,>G, G,>G, G,>G, [G,B,]>[G,B,] | %13
w: work un- til we die; ~|~ ~ ~ ~ ~ ~ ~ ~|
 [C,C]>[C,C] [C,C]>[C,C] [C,C]2 [C,C]2 | [C,C]>[C,C] [C,C]>[C,C] [C,C]2 (3([C,C][D,B,])[E,C] | %15
w: ~ ~ ~ ~ ~ ~|work un- til we die, yes, * we’ll|
 [F,C]>[F,C] [F,C]>[F,C] [F,C]2 [F,C]2 | [G,C]>[G,C] [G,C]>[G,C] [G,B,]2 G,2 | [C,G,]6 |] %18
w: work un- til we die, *|||
V:4
 x2 | x8 | x8 | x8 | C6 x2 | x8 | x8 | x8 | x6 || x2 | x8 | x10 | G,>G, G,>G, G,>G, x2 | x8 | x8 | %15
 x8 | x6 G,2 | x6 |] %18

